X:28
T:Swannanoa Waltz
R:Waltz
M:3/4
L:1/8
C:Rayna Gellert
S:Rayna Gellert, Ways of the World
S:https://youtu.be/BrNdEIFrIp4
N:In the original, the fiddle is tuned ADAE with drones and double stops throughout.
Z:abc-transcription Josh Larios <hades@elsewhere.org>, 2017.02.14
G:Key: D
K:D
D>E |: "D"E<F F2 E>D | "G"B,4 B,>A, | "D"E<F- F>F E>D | "A"F<A A>F D>E | 
| "D"E<F F2 E>D | "G"B,4 B,>A, | "A"D<E E>F (3GFE |1 "D"D2 A,>D A,>D :|2 "D"D2 D>D B>d | 
|: "D"d2 g2 f>e | "G"A<B- B>B A>B | "D"d2 g2 f>e | "A"f<a a>f A>B | 
|"D"B<d g2 f>e | "G"A<B- B>B A>B | "A"d>g f>d A>B |1 "D"B<d d>B A>B :|2 "D"B<d d>B D>E ||
%%vskip 1pt
%%barnumbers -1   % Disable measure numbers for ossia measure
%%begintext
%%NB: Dotted pairs should be played in triplet time.
%%endtext
%%stafflines 0
%%staffwidth 2.3in
K: C clef=none staffscale=0.7
"@-5,35 Written as:"G>G y10 G<y5G \
y15 \
"^Played as:"(3G-GG y10 (3GG-G

